source/img/advantages-image2.svg

<svg width="270" height="200" viewBox="0 0 270 200" fill="none" xmlns="http://www.w3.org/2000/svg">
<circle cx="137" cy="100" r="100" fill="#68B738"/>
<path d="M247.2 55.5999C249.509 51.9261 252.578 48.7891 256.2 46.3999C258.2 44.9999 259.4 44.9999 260.6 47.5999C262.2 51.3999 263.6 55.3999 262.4 59.5999C262.182 60.3122 262.141 61.0671 262.28 61.799C262.419 62.5309 262.735 63.2177 263.2 63.7999C264.4 65.3999 265.4 66.9999 266.4 68.3999C267.761 70.1274 268.644 72.1825 268.96 74.359C269.276 76.5354 269.014 78.7567 268.2 80.7999C267.466 82.7835 267.327 84.9384 267.8 86.9999C268.2 88.9799 268.2 91.0199 267.8 92.9999C267.638 94.4827 267.038 95.8837 266.076 97.0237C265.115 98.1637 263.835 98.991 262.4 99.3999C259.842 99.8867 257.559 101.314 256 103.4C255.811 103.707 255.546 103.961 255.231 104.136C254.916 104.311 254.561 104.402 254.2 104.4C251.8 104.8 245.8 99.3999 245.8 96.9999V95.7999C246 88.5999 245.6 87.9999 239 84.9999C237.619 84.5127 236.381 83.6877 235.4 82.5999C234.2 80.9999 232.6 81.1999 230.8 81.7999C229 82.3999 228 83.5999 228.2 85.5999C228.803 90.4416 229.004 95.325 228.8 100.2C228.813 100.756 228.95 101.303 229.2 101.8C235.4 110.8 237.8 121.4 240.8 131.6C243.2 139.4 247.6 143.6 255.6 144.2C256.88 144.302 258.151 144.503 259.4 144.8C261.044 145.064 262.57 145.815 263.783 146.956C264.995 148.097 265.837 149.575 266.2 151.2C267.6 155.4 266.8 156.4 262.6 156.4H249.6C247.917 156.485 246.267 155.911 245 154.8C242.976 153.092 240.677 151.739 238.2 150.8C235.462 149.789 233.093 147.977 231.4 145.6C229.057 142.327 226.376 139.31 223.4 136.6C217.8 130.8 211.8 125.2 206.6 119.2C202.642 115.112 200.358 109.688 200.2 104C200.2 102.2 199.8 101.4 197.8 102.2C197.201 102.58 196.509 102.787 195.8 102.8C190.2 102.8 187.4 106.2 185.4 111.2C183.6 115.4 181.2 119.4 179 123.6C177.753 126.229 177.071 129.091 177 132C177 136.8 178.2 138.4 182.6 140C185.4 141 188 142 189.4 144.8C191 148 190.6 148.8 187.2 149H173.6C172.816 149.078 172.027 148.907 171.346 148.512C170.664 148.117 170.123 147.518 169.8 146.8L166.2 140.8C165.139 139.234 164.46 137.442 164.216 135.566C163.973 133.691 164.173 131.784 164.8 130C165.666 126.527 165.734 122.903 165 119.4C164.496 116.96 164.539 114.439 165.127 112.018C165.715 109.597 166.833 107.337 168.4 105.4C169.6 104 169.6 103.4 167.6 103C159.422 101.263 151.494 98.5079 144 94.7999C143.947 94.7999 143.896 94.7788 143.859 94.7413C143.821 94.7038 143.8 94.6529 143.8 94.5999C137.4 92.1999 136.2 92.5999 134.4 99.1999C132.8 104.8 131.2 110.4 130 116.2C128.6 122.6 130.2 128.6 132.2 134.6C133 137 135.4 136.8 137.2 137.4C141.2 138.6 144.6 140.2 146.2 144.4C147.6 147.6 147.4 148 144 148C140.6 148 137.2 147.8 133.6 148C130.562 148.055 127.597 147.067 125.2 145.2C115.6 138.8 112.8 129 112 118.4C111.6 111.8 108 106.6 103.8 101.6C103 100.6 102.2 100.2 101 101C96.707 103.367 92.225 105.374 87.6001 107C77.9486 110.408 69.4793 116.517 63.2001 124.6C60.8554 127.55 59.3369 131.07 58.8001 134.8C58.2001 138.4 59.2001 140 62.8001 141C66.4001 142 68.2001 144 68.6001 147.8C68.8001 149.4 68.2001 150.2 66.6001 150.2H50.4001C49.8699 150.162 49.3566 149.997 48.9039 149.719C48.4513 149.44 48.0726 149.056 47.8001 148.6C45.2878 145.489 43.9434 141.598 44.0001 137.6C43.8951 130.69 44.4983 123.787 45.8001 117C46.067 114.967 46.8259 113.03 48.0109 111.358C49.1959 109.685 50.7712 108.326 52.6001 107.4C64.4001 101.8 70.6001 91.1999 76.2001 80.1999C77.4001 77.9999 76.4001 77.5999 74.4001 77.7999C68.8028 78.5769 63.4995 80.7809 59.0001 84.1999C53.1085 88.4976 47.5585 93.2451 42.4001 98.3999C36.8994 103.987 29.6055 107.457 21.8001 108.2C7.20008 109 0.400083 100.8 1.00008 87.5999C1.13421 83.0991 2.83138 78.7854 5.80008 75.3999C6.83213 74.0619 8.23955 73.0619 9.84262 72.5275C11.4457 71.9931 13.1716 71.9487 14.8001 72.3999C17.8001 73.1999 18.6001 74.7999 17.4001 77.7999C16.8001 78.9999 16.0001 79.9999 15.4001 81.1999C14.5373 82.4258 13.8631 83.7741 13.4001 85.1999C11.2001 91.1999 14.2001 95.3999 20.4001 95.9999C27.0001 96.5999 32.4001 93.7999 37.4001 89.7999C43.4239 84.9764 48.8015 79.3972 53.4001 73.1999C56.8386 68.6747 61.1683 64.9025 66.1217 62.1161C71.0752 59.3298 76.5473 57.5886 82.2001 56.9999C86.8001 56.3999 90.8001 54.3999 95.2001 53.1999C103.429 50.6911 111.998 49.4766 120.6 49.5999C124.584 49.7658 128.553 49.0131 132.2 47.3999C142 43.3999 152.2 43.3999 162.4 45.3999C170.4 46.9999 178.4 48.9999 186.2 50.9999C190.842 51.8648 195.615 51.7285 200.2 50.5999C208.977 48.375 217.956 47.0349 227 46.5999C232.925 46.3116 238.83 47.479 244.2 49.9999C248.2 51.7999 248.2 51.7999 247.2 55.5999Z" fill="black"/>
</svg>

<svg width="270" height="200" fill="none" xmlns="http://www.w3.org/2000/svg"><circle cx="137" cy="100" r="100" fill="#68B738"/><path d="M247.2 55.6a30.4 30.4 0 019-9.2c2-1.4 3.2-1.4 4.4 1.2 1.6 3.8 3 7.8 1.8 12a4.59 4.59 0 00.8 4.2c1.2 1.6 2.2 3.2 3.2 4.6a12.54 12.54 0 011.8 12.4 10.86 10.86 0 00-.4 6.2c.4 1.98.4 4.02 0 6a7.5 7.5 0 01-5.4 6.4 10.42 10.42 0 00-6.4 4 2.1 2.1 0 01-1.8 1c-2.4.4-8.4-5-8.4-7.4v-1.2c.2-7.2-.2-7.8-6.8-10.8a8.78 8.78 0 01-3.6-2.4c-1.2-1.6-2.8-1.4-4.6-.8-1.8.6-2.8 1.8-2.6 3.8.6 4.84.8 9.73.6 14.6.01.56.15 1.1.4 1.6 6.2 9 8.6 19.6 11.6 29.8 2.4 7.8 6.8 12 14.8 12.6 1.28.1 2.55.3 3.8.6a8.32 8.32 0 016.8 6.4c1.4 4.2.6 5.2-3.6 5.2h-13a6.48 6.48 0 01-4.6-1.6 23.41 23.41 0 00-6.8-4 14.53 14.53 0 01-6.8-5.2 57.21 57.21 0 00-8-9c-5.6-5.8-11.6-11.4-16.8-17.4a22.76 22.76 0 01-6.4-15.2c0-1.8-.4-2.6-2.4-1.8-.6.38-1.3.59-2 .6-5.6 0-8.4 3.4-10.4 8.4-1.8 4.2-4.2 8.2-6.4 12.4a20.79 20.79 0 00-2 8.4c0 4.8 1.2 6.4 5.6 8 2.8 1 5.4 2 6.8 4.8 1.6 3.2 1.2 4-2.2 4.2h-13.6a3.75 3.75 0 01-3.8-2.2l-3.6-6a12.12 12.12 0 01-1.4-10.8c.87-3.47.93-7.1.2-10.6a16.84 16.84 0 013.4-14c1.2-1.4 1.2-2-.8-2.4a100.12 100.12 0 01-23.74-8.26.2.2 0 01-.06-.14c-6.4-2.4-7.6-2-9.4 4.6-1.6 5.6-3.2 11.2-4.4 17-1.4 6.4.2 12.4 2.2 18.4.8 2.4 3.2 2.2 5 2.8 4 1.2 7.4 2.8 9 7 1.4 3.2 1.2 3.6-2.2 3.6-3.4 0-6.8-.2-10.4 0-3.04.06-6-.93-8.4-2.8-9.6-6.4-12.4-16.2-13.2-26.8-.4-6.6-4-11.8-8.2-16.8-.8-1-1.6-1.4-2.8-.6a88.65 88.65 0 01-13.4 6 53.42 53.42 0 00-24.4 17.6 21.26 21.26 0 00-4.4 10.2c-.6 3.6.4 5.2 4 6.2s5.4 3 5.8 6.8c.2 1.6-.4 2.4-2 2.4H50.4a3.31 3.31 0 01-2.6-1.6c-2.51-3.11-3.86-7-3.8-11-.1-6.91.5-13.81 1.8-20.6a12.6 12.6 0 016.8-9.6c11.8-5.6 18-16.2 23.6-27.2 1.2-2.2.2-2.6-1.8-2.4-5.6.78-10.9 2.98-15.4 6.4-5.9 4.3-11.44 9.05-16.6 14.2a33.34 33.34 0 01-20.6 9.8C7.2 109 .4 100.8 1 87.6c.13-4.5 1.83-8.81 4.8-12.2a8.5 8.5 0 019-3c3 .8 3.8 2.4 2.6 5.4-.6 1.2-1.4 2.2-2 3.4a15 15 0 00-2 4c-2.2 6 .8 10.2 7 10.8 6.6.6 12-2.2 17-6.2a89.88 89.88 0 0016-16.6A41.58 41.58 0 0182.2 57c4.6-.6 8.6-2.6 13-3.8a83.02 83.02 0 0125.4-3.6 26 26 0 0011.6-2.2c9.8-4 20-4 30.2-2 8 1.6 16 3.6 23.8 5.6 4.64.86 9.42.73 14-.4a135.58 135.58 0 0126.8-4c5.93-.29 11.83.88 17.2 3.4 4 1.8 4 1.8 3 5.6z" fill="#000"/></svg>
